X: 1272
T: Bill Large's 2nd Waltz
B: australian traditional tunes wiki
M:3/4
L:1/8
R: Waltz
Q: 1/4=100
K:D
V:1 
A>d|"D"f2f2f>d|(3faf e2d2|A4A>B|(3AdA F2A>B|"A7"c4c>d|(3cec B2A2|G2F2E2|"D"F4A>d|
"D"f4f>d|(3faf e2d2|A2F2A>B|(3AdAF2A>B|"A7"c2c2c>B|c2f2e2|"D"d2-d>ed2|d4 A>F||
"D"D2F2A>B|(3AdAF2D2|"G"G2B2B>c|B4c>B|"A7"A2-A>ce2|e2f2e2|"G"(3eaed2B2|"A7"A4A>F|
"D"D2F2A>B|(3AdAF2D2|"G"G2B2B>c|B4c>B|"A7"A2-A>ce2|e2f2e2|"D"d2-d>ed2|d4f>d||
% abcbook-tune_id 6342d53a71ff84383e03b961


% abcbook-boost 0
% abcbook-tablature 
% abcbook-transpose 
% abcbook-lastupdated 1665324356956
% abcbook-soundfonts 
% abcbook-repeats 1
% NFF Book 2015

